Pods/ProtonCore-UIFoundations/libraries/UIFoundations/Sources/Assets.xcassets/Images/IconSet/ic-map-pin.imageset/ic-map-pin.svg

<svg width="24" height="24" viewBox="0 0 24 24" fill="none" xmlns="http://www.w3.org/2000/svg">
<path fill-rule="evenodd" clip-rule="evenodd" d="M12 3C8.67488 3 6 5.67072 6 8.93984C6 10.6009 6.47053 12.2295 7.3591 13.6398L11.7519 20.6119C11.8645 20.7906 11.9314 20.8964 11.9823 20.9721C11.9891 20.9823 11.995 20.9909 12 20.9981C12.005 20.9909 12.0109 20.9823 12.0177 20.9721C12.0686 20.8964 12.1355 20.7906 12.2481 20.6119L16.6409 13.6398C17.5295 12.2295 18 10.6009 18 8.93984C18 5.67072 15.3251 3 12 3ZM6.09 14.4394C5.05094 12.7902 4.5 10.8846 4.5 8.93984C4.5 4.83093 7.85786 1.5 12 1.5C16.1421 1.5 19.5 4.83093 19.5 8.93984C19.5 10.8846 18.9491 12.7902 17.91 14.4394L13.5172 21.4115C13.3019 21.7532 13.1942 21.9241 13.0938 22.0303C12.5012 22.6566 11.4988 22.6566 10.9062 22.0303C10.8058 21.9241 10.6981 21.7532 10.4828 21.4115L6.09 14.4394Z" fill="#0C0C14"/>
<path fill-rule="evenodd" clip-rule="evenodd" d="M12 10.5C12.8284 10.5 13.5 9.82843 13.5 9C13.5 8.17157 12.8284 7.5 12 7.5C11.1716 7.5 10.5 8.17157 10.5 9C10.5 9.82843 11.1716 10.5 12 10.5ZM12 12C13.6569 12 15 10.6569 15 9C15 7.34315 13.6569 6 12 6C10.3431 6 9 7.34315 9 9C9 10.6569 10.3431 12 12 12Z" fill="#0C0C14"/>
</svg>

<svg xmlns="http://www.w3.org/2000/svg" width="24" height="24" viewBox="0 0 24 24">
  <g class="ic-map-pin">
    <g class="Icon">
      <path fill-rule="evenodd" d="M12 3C8.675 3 6 5.67 6 8.94c0 1.66.47 3.29 1.36 4.7l4.392 6.972a16.527 16.527 0 0 0 .248.386l.018-.026c.05-.076.117-.181.23-.36l4.393-6.972A8.815 8.815 0 0 0 18 8.94C18 5.67 15.325 3 12 3ZM6.09 14.44a10.315 10.315 0 0 1-1.59-5.5C4.5 4.83 7.858 1.5 12 1.5c4.142 0 7.5 3.33 7.5 7.44 0 1.945-.55 3.85-1.59 5.5l-4.393 6.972c-.215.341-.323.512-.423.618a1.508 1.508 0 0 1-2.188 0c-.1-.106-.208-.277-.423-.619L6.09 14.44Z"/>
      <path fill-rule="evenodd" d="M12 10.5a1.5 1.5 0 1 0 0-3 1.5 1.5 0 0 0 0 3Zm0 1.5a3 3 0 1 0 0-6 3 3 0 0 0 0 6Z"/>
    </g>
  </g>
</svg>
